X:1
T: Lieutenant Howard Douglas
C:Robert MacKintosh
R:Strathspey
Q: 128
K:Dm
M:4/4
L:1/16
|:d3c|Ad3 d3c Ad3 de3|C3E c3A GFED C3E|Dd3 d3c Ad3 de3|f3a g3e ddd2 d3c|
Ad3 d3c Ad3 de3|C3E c3A GFED C3E|Dd3 d3c Ad3 de3|f3a g3e ddd2 efg2|
ad3 f3d agfe fd3|g3c ec3 g3c eg3|ad3 f3d agfe fd3|ca3 g3e ddd2 efg2|
ad3 f3d agfe fd3|g3c ec3 g3c eg3|a3g ec3 f3e de3|d3c Ac3 ddd2:|
